outputs/icons/navigation/arrow_up_round.svg

<svg xmlns="http://www.w3.org/2000/svg" width="1200" height="1200" fill="none"><g clip-path="url(#a)"><path fill="#000" d="M650 950V391.499L894 635.5c19.5 19.5 51.5 19.5 71 0s19.5-51 0-70.5L635.5 235.499c-19.5-19.5-51-19.5-70.5 0L234.999 564.5c-19.501 19.5-19.501 51 0 70.5 19.5 19.5 50.999 19.5 70.499 0L550 391.499V950c0 27.5 22.5 50 50 50s50-22.5 50-50"/></g><defs><clipPath id="a"><path fill="#fff" d="M0 0h1200v1200H0z"/></clipPath></defs></svg>

<svg width="1200" height="1200" viewBox="0 0 1200 1200" fill="none" xmlns="http://www.w3.org/2000/svg"><g clip-path="url(#clip0_225_2883)"><path d="M650 950V391.499L894 635.5C913.5 655 945.5 655 965 635.5C984.5 616 984.5 584.5 965 565L635.5 235.499C616 215.999 584.5 215.999 565 235.499L235 564.5C215.5 584 215.5 615.5 235 635C254.5 654.5 286 654.5 305.5 635L550 391.499V950C550 977.5 572.5 1000 600 1000C627.5 1000 650 977.5 650 950Z" fill="#1D1E23"/></g><defs><clipPath id="clip0_225_2883"><path width="24" fill="white" d="M0 0H1200V1200H0V0z"/></clipPath></defs></svg>
